src/22/panel/cisco-tray-connected.svg

<svg xmlns="http://www.w3.org/2000/svg" width="22" height="22" version="1.1">
 <defs>
  <style id="current-color-scheme" type="text/css">
   .ColorScheme-Text { color:#d3dae3; } .ColorScheme-Highlight { color:#4285f4; }
  </style>
 </defs>
 <path style="fill:currentColor" class="ColorScheme-Text" d="M 11 3 C 8.009725 3 5.4180719 4.6269634 4.0449219 7.0449219 C 5.2107109 6.3828743 6.558275 6 8 6 C 8.524759 6 9.0371571 6.052885 9.5332031 6.1484375 C 9.5350031 6.1437775 9.5372625 6.1394176 9.5390625 6.1347656 C 9.6481115 5.8511848 9.7727484 5.5773222 9.9121094 5.3105469 C 9.9250094 5.2856729 9.9380319 5.2610491 9.9511719 5.2363281 C 10.078978 4.9978441 10.218628 4.7680924 10.369141 4.5449219 C 10.399021 4.5002339 10.426281 4.454197 10.457031 4.4101562 C 10.609004 4.1942902 10.771315 3.9865308 10.943359 3.7871094 C 10.971399 3.7544164 10.996831 3.719726 11.025391 3.6875 C 11.229896 3.457986 11.444498 3.2379308 11.673828 3.0332031 C 11.45122 3.0147621 11.227527 3 11 3 z M 14.226562 3.6777344 C 13.937176 3.8282219 13.666429 4.0069992 13.408203 4.2011719 C 13.344033 4.2491449 13.284789 4.3030693 13.222656 4.3535156 C 13.008473 4.5286484 12.802873 4.7149958 12.615234 4.9179688 C 12.585374 4.9499898 12.554551 4.9809989 12.525391 5.0136719 C 12.067874 5.5309607 11.695942 6.1253381 11.435547 6.7792969 C 13.363598 7.6944632 14.849453 9.3606937 15.550781 11.398438 C 15.980802 11.151829 16.470568 11 17 11 C 17.750595 11 18.426039 11.292965 18.949219 11.757812 C 18.973234 11.507244 19 11.257287 19 11 C 19 7.7183319 17.041258 4.9142825 14.226562 3.6777344 z M 8 8 C 5.920529 8 4.0933101 9.0464652 3.0175781 10.644531 C 3.0123781 10.76324 3 10.87997 3 11 C 3 15.432 6.568 19 11 19 C 11.119372 19 11.235451 18.987552 11.353516 18.982422 L 11.355469 18.982422 C 12.013286 18.539584 12.564301 17.959751 13 17.296875 L 13 15.904297 C 12.880775 15.834697 12.754351 15.776301 12.638672 15.701172 C 12.606302 15.680172 12.575009 15.658169 12.542969 15.636719 C 12.25712 15.445135 11.982537 15.239592 11.724609 15.013672 C 11.721509 15.010972 11.718044 15.008559 11.714844 15.005859 C 11.453487 14.776245 11.209729 14.527297 10.980469 14.265625 C 10.949319 14.230125 10.919202 14.194255 10.888672 14.158203 C 10.678696 13.909818 10.481461 13.652077 10.302734 13.378906 C 10.289814 13.359196 10.276412 13.340143 10.263672 13.320312 C 10.082505 13.037983 9.9224208 12.740932 9.7773438 12.435547 C 9.7493937 12.376817 9.7238156 12.317331 9.6972656 12.257812 C 9.5660386 11.963138 9.4469465 11.662083 9.3515625 11.349609 C 9.3450625 11.328469 9.3363681 11.308329 9.3300781 11.287109 C 9.2346381 10.964815 9.1659991 10.631172 9.1113281 10.292969 C 9.0985081 10.213799 9.0866619 10.134642 9.0761719 10.054688 C 9.0309241 9.7089918 9 9.358483 9 9 C 9 8.694348 9.0175413 8.3940171 9.0507812 8.0976562 C 8.7092773 8.0377183 8.359197 8 8 8 z M 11.013672 8.8125 C 11.011672 8.87577 11 8.936238 11 9 C 11 9.248781 11.019648 9.4918529 11.048828 9.7324219 C 11.057728 9.8060019 11.070521 9.8784539 11.082031 9.9511719 C 11.109961 10.126892 11.144731 10.300546 11.1875 10.470703 C 11.20522 10.541383 11.221998 10.611992 11.242188 10.681641 C 11.308087 10.90838 11.383569 11.131108 11.474609 11.345703 C 11.571209 11.573403 11.683724 11.79182 11.806641 12.003906 C 11.823061 12.032326 11.840552 12.059771 11.857422 12.087891 C 11.972984 12.279917 12.098646 12.465455 12.234375 12.642578 C 12.247655 12.659958 12.259968 12.678092 12.273438 12.695312 C 12.580001 13.086417 12.93286 13.438044 13.326172 13.742188 C 13.342332 13.754708 13.35871 13.766937 13.375 13.779297 C 13.480246 13.858977 13.59457 13.92688 13.705078 14 L 14 14 C 14 11.777172 12.80056 9.849313 11.013672 8.8125 z M 17 12 C 15.892 12 15 12.9109 15 14.03125 L 15 15 L 14 15 L 14 19 L 20 19 L 20 15 L 19 15 L 19 14.03125 C 19 12.91135 18.108 12 17 12 z M 17 13 C 17.554 13 18 13.4424 18 14 L 18 15 L 16 15 L 16 14 C 16 13.4424 16.446 13 17 13 z"/>
</svg>

<svg xmlns="http://www.w3.org/2000/svg" width="22" height="22"><defs><style id="current-color-scheme" type="text/css"></style></defs><path d="M11 3a7.975 7.975 0 0 0-6.955 4.045 7.981 7.981 0 0 1 5.488-.897l.006-.013a7.904 7.904 0 0 1 .83-1.59c.03-.045.057-.09.088-.135.152-.216.314-.423.486-.623l.082-.1c.205-.229.42-.45.649-.654A8.134 8.134 0 0 0 11 3zm3.227.678c-.29.15-.56.329-.819.523-.064.048-.123.102-.185.153-.215.175-.42.361-.608.564l-.09.096a6.036 6.036 0 0 0-1.09 1.765 7.984 7.984 0 0 1 4.116 4.62A2.9 2.9 0 0 1 17 11c.75 0 1.426.293 1.95.758.023-.25.05-.5.05-.758a7.98 7.98 0 0 0-4.773-7.322zM8 8a5.986 5.986 0 0 0-4.982 2.645C3.012 10.763 3 10.88 3 11c0 4.432 3.568 8 8 8 .12 0 .235-.012.354-.018h.001A5.971 5.971 0 0 0 13 17.297v-1.393c-.12-.07-.246-.128-.361-.203-.033-.02-.064-.043-.096-.064a7.98 7.98 0 0 1-.818-.623l-.01-.008a7.998 7.998 0 0 1-.735-.74l-.091-.108a7.955 7.955 0 0 1-.586-.78l-.04-.058a7.96 7.96 0 0 1-.486-.884l-.08-.178a7.91 7.91 0 0 1-.345-.908c-.007-.022-.016-.042-.022-.063a7.996 7.996 0 0 1-.254-1.232A8.102 8.102 0 0 1 9 9c0-.306.018-.606.05-.902A6.065 6.065 0 0 0 8 8zm3.014.813C11.012 8.876 11 8.935 11 9c0 .249.02.492.049.732.009.074.022.146.033.22.028.175.063.349.105.519.018.07.035.141.055.21.066.227.142.45.233.665.096.227.209.446.332.658l.05.084c.116.192.242.377.377.555l.04.052c.306.391.659.743 1.052 1.047l.049.037c.105.08.22.148.33.221H14a5.98 5.98 0 0 0-2.986-5.188zM17 12c-1.108 0-2 .91-2 2.031V15h-1v4h6v-4h-1v-.969c0-1.12-.892-2.031-2-2.031zm0 1c.554 0 1 .442 1 1v1h-2v-1c0-.558.446-1 1-1z" fill="currentColor" color="#323232"/></svg>
